!!!COM: Palestrina, Giovanni Perluigi da
!!!OPR: Missa Salve regina
!!!OMD: Sanctus
!!!OTL: Pleni
**kern	**kern	**kern	**kern
*Itenor	*Icalto	*Icalto	*Icant
!Tenor	!Altus 2	!Altus 1	!Cantus
*clefGv2	*clefG2	*clefG2	*clefG2
*k[b-]	*k[b-]	*k[b-]	*k[b-]
*G:dor	*G:dor	*G:dor	*G:dor
*M4/2	*M4/2	*M4/2	*M4/2
=39	=39	=39	=39
0r	0r	1d	1dd
.	.	2e	2g
.	.	2f	2a
=40	=40	=40	=40
0r	0r	1g	1b-
.	.	2f	2a
.	.	2d	2a
=41	=41	=41	=41
0r	0r	4e	4g
.	.	4f	4a
.	.	4g	4b-
.	.	4e	4cc
.	.	4f	4dd
.	.	4g	4ee
.	.	[2a	[2ff
=42	=42	=42	=42
1d	0r	4a]	4ff]
.	.	4g	4ee
.	.	2f	1dd
2G	.	1e	.
2A	.	.	2cc#
=43	=43	=43	=43
1B-	2r	1d	1.dd
.	2d	.	.
2A	2e	1r	.
2A	2f	.	2cc
=44	=44	=44	=44
4G	1g	0r	1b-
4A	.	.	.
4B-	.	.	.
4c	.	.	.
4d	2f	.	1a
4e	.	.	.
[2f	4d	.	.
.	4e	.	.
=45	=45	=45	=45
4f]	4f	1a	2r
4e	4g	.	.
1d	4a	.	2dd
.	4b-	.	.
.	1a	2d	2ff
2c	.	2e	[2ee
=46	=46	=46	=46
1d	0a	1f	2ee]
.	.	.	1dd
1A	.	2e	.
.	.	2e	2cc
=47	=47	=47	=47
0r	1a	4d	1ff
.	.	4e	.
.	.	4f	.
.	.	4g	.
.	1r	4a	2ee
.	.	4g	.
.	.	[2b-	[2dd
=48	=48	=48	=48
0r	1g	4b-]	4dd]
.	.	4a	4cc
.	.	1g	2b-
.	2c	.	1a
.	2d	2f#	.
=49	=49	=49	=49
1r	1e-	2g	2g
.	.	1b-	1gg
2r	1d	.	.
2d	.	2a	2ff
=50	=50	=50	=50
2e	1r	2g	2ee
2f	.	2f	1dd
1g	2r	1e	.
.	2g	.	2cc#
=51	=51	=51	=51
2f	2a	1d	1dd
2d	2b-	.	.
4e	1cc	1r	1r
4d	.	.	.
4c	.	.	.
4d	.	.	.
=52	=52	=52	=52
4e	2cc	0r	2r
4f	.	.	.
1g	2b-	.	2dd
.	1a	.	2ee
2f	.	.	2ff
=53	=53	=53	=53
1e	1g	2r	1gg
.	.	2g	.
1d	2r	2a	2ff
.	2f	2b-	2dd
=54	=54	=54	=54
1c	2g	1cc	4ee
.	.	.	4ff
.	2g	.	4gg
.	.	.	4ee
2F	2a	2cc	2ff
2G	[2g	2b-	[2ee
=55	=55	=55	=55
0A	2g]	0a	2ee]
.	2f	.	1dd
.	1e	.	.
.	.	.	2cc#
=56	=56	=56	=56
2r	1d	2f	1dd
1d	.	2a	.
.	1r	2b-	1r
2e	.	4cc	.
.	.	4b-	.
=57	=57	=57	=57
4f	0r	4a	2r
4e	.	4g	.
4d	.	2f	1dd
4c	.	.	.
2B-	.	1g	.
2c	.	.	2ee
=58	=58	=58	=58
1d	0r	2f	4ff
.	.	.	4ee
.	.	2.b-	4dd
.	.	.	4cc
1e-	.	.	2b-
.	.	4a	.
.	.	[2g	2cc
=59	=59	=59	=59
1d	2r	2g]	1dd
.	1a	4f#	.
.	.	4e	.
1r	.	2f#	2.dd
.	2b-	2g	.
.	.	.	4dd
=60	=60	=60	=60
2r	4cc	1c	4ee-
.	4b-	.	4dd
2c	4a	.	4cc
.	4g	.	4b-
2d	2f#	1r	2a
2e-	2g	.	[2g
=61	=61	=61	=61
1d	1a	0r	2g]
.	.	.	2f#
1G	1b-	.	2g
.	.	.	2dd
=62	=62	=62	=62
1r	0a	2r	2ee
.	.	1d	1ff
2r	.	.	.
[2A	.	2e	4ee
.	.	.	4dd
=63	=63	=63	=63
2A]	1r	1f	2cc
2B-	.	.	2dd
4c	2r	2e	2g
4B-	.	.	.
4A	[2a	2c	[2cc
4G	.	.	.
=64	=64	=64	=64
2F	2a]	1d	2cc]
2G	2b-	.	2b-
[1A	4cc	2c	4a
.	4b-	.	4g
.	4a	[2f	4f
.	4g	.	4e
=65	=65	=65	=65
1A]	2f	2f]	2d
.	2g	4e	1dd
.	.	4d	.
1A	1a	1e	.
.	.	.	2cc#
=66	=66	=66	=66
1d	2a	2d	0dd
.	1f	1a	.
1r	.	.	.
.	2g	2b-	.
=67	=67	=67	=67
2r	4a	4cc	0r
.	4g	4b-	.
1d	4f	4a	.
.	4g	4g	.
.	4a	2f	.
.	4b-	.	.
2e	[2cc	2g	.
=68	=68	=68	=68
4f	2cc]	1a	2r
4e	.	.	.
4d	2f	.	1dd
4c	.	.	.
2B-	1g	2r	.
2c	.	2cc	2ee
=69	=69	=69	=69
1d	2r	2a	4ff
.	.	.	4ee
.	2f	1b-	4dd
.	.	.	4cc
1e-	1g	.	2b-
.	.	4a	2cc
.	.	4g	.
=70	=70	=70	=70
0d	2a	2f#	0dd
.	1g	2g	.
.	.	1a	.
.	2f#	.	.
=71	=71	=71	=71
0G	0g	0b	0dd
*-	*-	*-	*-
!!!CDT: 1525/^1526/-1594/2/2
!!!OCY: Italia
!!!AGN: Mass (Paraphrase)
!!!AST: renaissance, vocal
!!!ASW: Antiphon
!!!PWK: Masses, Book 11
!!!RNB: Cadence finals: D
!!!YOR: Le Opere Complete, v. 28, p. 185
!!!YOO: Rome, Italy: Fratelli Scalera
!!!END: 1992//
!!!EED: John Miller
!!!YEC: Copyright 2000, John Miller
!!!YEN: United States of America
!!!YEM: Rights to all derivative electronic formats reserved.
!!!YEM: Refer to licensing agreement for further details.
!!!YEM: This file must be accompanied by the licensing agreement.
!!!YEM: A copy of the licensing agreement may be found at http://www.music-cog.ohio-state.edu/HumdrumDatabases/Palestrina/license.txt
!!!EMD: converted to Humdrum by Bret Aarden
